X:73
T:First Love. WM.072
M:C
L:1/8
Q:1/2=75
S:Wm.Mittell's MS, New Romney,Kent,1799
R:.Country Dance
O:England
A:Kent
Z:vmp.Chris Partington
K:D
FAFA dafd|Bged dcBA|FAFA dafd|Bgecd2d2:|!
|:eceA eceA|afge fdcd|eceA|eceg|faAcd2d2:|

